X:1
T:Lute Suite in G Minor
T:Lute Suite no. 3 in G Minor
T:Gavotte I and II
T:J.S. Bach
T:BWV 995
T:Transposed to A Minor for Guitar
T:Public Domain
T:Public Domain
C:J.S. Bach
Z:Public Domain
%%score ( 1 2 3 4 )
L:1/8
M:2/2
K:C
V:1 treble-8 nm="Classical Guitar" snm="Guit."
V:2 treble-8 
V:3 treble-8 
V:4 treble-8 
V:1
"^Gavotte I." e2 a2 | f2 ge f2 gd | e2 c^G A2 fc | d2 B^F ^GB e2 | dcBA ecae | fdg^c fdgB | %6
 ecfB ecge | af_be afc'^f | =bgc'b ag^fe | ^f2 ge f2 af | g2 a^f g2 c'a | b2 e2 g^fe^d | e4 :: %13
 g2 e2 | ^c2 dB c2 ac | d2 e^c d2 ad | e2 fd e2 ae | gfed (fedc) | BFcA BFgB | cEdB cEgc | %20
 dGec dGgd | (fedc) f2 e2 | dcdB a2 g2 | f6 f2 | fdec (edcB) | c4 [ce]2 c2 | g2 a^f g2 ae | %27
 (g^fed) (gf)(a^g) | (a^g)(bg) acBA | z B(a^g) (c'efd) | (bdec) (acdB) | a^g^fe (acdB) | %32
 gBcA (fAB^G) | (edcB) A2 cA | B2 cA B2 dB | c2 (dB) c2 fd | [ce]2 A2 (cB)E^G | %37
[Q:1/4=110] !fermata!A4!fine! ::"^Gavotte en Rondeau."[Q:1/4=130] (3ede (3fed | %39
 e2- (3edc (3Bcd (3cBA | (3^GAB (3EGB (3ede (3fed | (3edc (3Bcd (3cBA (3^GAB | A4 :: (3cBc (3dcB | %44
 c2- (3cde (3fed (3edc | (3Bcd (3GBd (3g^fg (3agf | (3g^fe (3c'ba (3gfe (3^def | %47
 (3eED (3CDB, (3ede (3fed | e2- (3edc (3Bcd (3cBA | (3^GAB (3EGB (3ede (3fed | %50
 (3edc (3Bcd (3cBA (3^GAB | (3AEC (3A,CE (3Ace (3ab^g | a2- (3agf (3efg (3fed | %53
 (3^cde (3ABc (3dcd (3edc | (3d c_B (3ABc (3B^cd (3edc | (3d AG (3^FGA (3G ^cd (3edc | %56
 (3^G de (3fed (3agf (3ed^c | (3def (3efd (3^gab (3abg | (3agf (3edc (3fed (3cBA | %59
 (3^GAB (3EGB (3ede (3fed | (3edc (3Bcd (3cBA (3^GAB | A4!D.C.! :| %62
V:2
 A,4 | D4 G,4 | C4 F,4 | B,4 E,4 | A,6 C2 | D6 G,2 | C6 C2 | F6 D2 | G6 G2 | A,4 C4 | B,4 A,4 | %11
 z2 G,2 A,2 B,2 | E2 E,2 :: E,4 | A,4 G,2 z2 | =F,4 F2 z2 | ^C4 A,2 z2 | D4 D4 | G,4 G,4 | %19
 A,4 A,4 | B,4 B,4 | C4 A,2 G,2 | F,4 F2 E2 | D4 z4 | C2 F,4 G,2 | C2 C2 C4 | B,4 z2 ^C2 | D8 | %28
 ^D8 | E,4 A,4 | G,4 F,4 | E,4 E,4 | E,4 E,4 | D4 C4 | D4 F,4 | E,4 D4 | z2 C4 E,2 | %37
 !fermata!A,4 :: A,2 D2 | A,2 A2 ^G2 A,2 | E,2 D2 C2 B,2 | C2 D2 E,2 E2 | z2 A,2 :: A2 ^G2 | %44
 A2 E2 D2 C2 | A,2 B,2 E2 ^D2 | E2 A,2 E2 B,2 | E,4 A,2 D2 | A,2 A2 ^G2 A,2 | E,2 D2 C2 B,2 | %50
 C2 D2 E,2 E2 | A,4 z4 | F,2 D,2 G,2 ^G2 | A,2 G,2 F,4 | z2 ^F2 G2 z2 | z2 A,2 _B,2 z2 | %56
 B,2 z2 A,2 A,2 | D4 D4 | C4 D2 ^D2 | E,2 D2 C2 B,2 | C2 D2 E,2 E2 | z2 A,2 :| %62
V:3
 c4 | d4 B2 z2 | B2 z2 z4 | A2 z2 z4 | E4 z4 | x8 | x8 | x8 | x8 | e2 z2 e2 z2 | e2 z2 e2 z2 | %11
 ^d2 B2 z4 | B4 :: B4 | E4 A2 z2 | A4 A2 z2 | A4 ^c2 z2 | A8 | x8 | x8 | x8 | z4 c2 c2 | z4 c2 c2 | %23
 cBcA B2 d2 | x8 | [EG]4 G2 x2 | d2 z2 z4 | x8 | x8 | x8 | x8 | x8 | x8 | ^G4 x4 | A4 A4 | A4 A4 | %36
 x8 | x4 :: x4 | x8 | x8 | x8 | x4 :: x4 | x8 | x8 | x8 | x8 | x8 | x8 | x8 | x8 | x8 | x8 | x8 | %55
 x8 | x8 | x8 | x8 | x8 | x8 | x4 :| %62
V:4
 x4 | x8 | x8 | x8 | x8 | x8 | x8 | x8 | x8 | x8 | x8 | x8 | ^G4 :: x4 | x8 | x8 | x8 | x8 | x8 | %19
 x8 | x8 | x8 | x8 | F4 D2 B,2 | x8 | x8 | x8 | x8 | x8 | x8 | x8 | x8 | x8 | x8 | x8 | x8 | x8 | %37
 x4 :: x4 | x8 | x8 | x8 | x4 :: x4 | x8 | x8 | x8 | x8 | x8 | x8 | x8 | x8 | x8 | x8 | x8 | x8 | %56
 x8 | x8 | x8 | x8 | x8 | x4 :| %62

